public/assets/images/icons/blue/export/exclaim-circle.svg

<svg width="16" height="16" xmlns="http://www.w3.org/2000/svg" viewBox="0 0 16 16" shape-rendering="geometricPrecision" fill="#24437c"><defs><mask id="a"><rect fill="#fff" width="100%" height="100%"/><path d="M13.848-1.1L12.051.695l.286.287A4.455 4.455 0 0 0 9.23 5.236v.987h2.626v-.988c0-.491.191-.954.538-1.302l.03-.03 1.425 1.421 3.212-3.213L13.848-1.1z" fill="#000"/></mask></defs><path d="M13.848-.04l-.736.735.821.821h-.234l-.156.008A3.722 3.722 0 0 0 9.98 5.235v.237h1.126v-.237c0-.691.27-1.343.759-1.833a2.579 2.579 0 0 1 1.833-.759h.3l-.886.887.735.734L16 2.111 13.848-.04z" fill="#cb1800"/><path d="M7.999.973a6.997 6.997 0 1 0 .002 13.994A6.997 6.997 0 0 0 8 .973zm0 12.579a5.589 5.589 0 0 1-5.581-5.579 5.59 5.59 0 0 1 5.581-5.585 5.591 5.591 0 0 1 5.582 5.585 5.59 5.59 0 0 1-5.582 5.579zm.006-3.426c-.683 0-1.16.49-1.16 1.175 0 .671.464 1.172 1.147 1.172h.013c.698 0 1.148-.501 1.148-1.172-.01-.685-.462-1.175-1.148-1.175zm.736-.646l.286-5.845H6.974L7.27 9.48h1.471z" mask="url(#a)"/></svg>

<?xml version="1.0"?><!DOCTYPE svg PUBLIC "-//W3C//DTD SVG 1.1//EN" "http://www.w3.org/Graphics/SVG/1.1/DTD/svg11.dtd"><svg width="16px" height="16px" xmlns="http://www.w3.org/2000/svg" viewBox="0 0 16 16" shape-rendering="geometricPrecision" fill="#24437c"><defs><mask id="export-path"><rect fill="#fff" width="100%" height="100%"/><path d="M13.848-1.1l-1.797,1.795l0.286,0.287c-1.812,0.575-3.107,2.263-3.107,4.254v0.987h2.626 V5.235c0-0.491,0.191-0.954,0.538-1.302c0.01-0.01,0.021-0.02,0.03-0.03l1.425,1.421l3.212-3.213L13.848-1.1z" fill="#000"/></mask></defs><path id="export" display="inline" d="M13.848-0.04l-0.736,0.735l0.821,0.821h-0.234 l-0.156,0.008c-1.978,0.084-3.563,1.714-3.563,3.711v0.237h1.126V5.235c0-0.691,0.27-1.343,0.759-1.833 c0.49-0.489,1.141-0.759,1.833-0.759h0.237V2.643h0.063L13.112,3.53l0.735,0.734L16,2.111L13.848-0.04z" fill="#cb1800"/><g mask="url(#export-path)"><path d="M7.999,0.973c-3.864,0-6.996,3.133-6.996,7c0.001,3.862,3.132,6.992,6.996,6.994 c3.865-0.002,6.998-3.132,6.998-6.994C14.997,4.105,11.864,0.973,7.999,0.973z M7.999,13.552 c-3.082-0.006-5.575-2.499-5.581-5.579c0.006-3.085,2.499-5.579,5.581-5.585c3.082,0.006,5.576,2.5,5.582,5.585 C13.574,11.053,11.081,13.546,7.999,13.552z M8.005,10.126c-0.683,0-1.16,0.49-1.16,1.175c0,0.671,0.464,1.172,1.147,1.172h0.013 c0.698,0,1.148-0.501,1.148-1.172C9.143,10.616,8.691,10.126,8.005,10.126z M8.741,9.48l0.286-5.845H6.974L7.27,9.48H8.741z"/></g></svg>
